Origami/22x22/apps/visual-studio-code-insiders.svg

<svg width="22" height="22" version="1" xmlns="http://www.w3.org/2000/svg">
 <path d="m14.890625 1.5015905a3.0003 3.0003 0 0 0 -1.908203 0.7773438l-4.0703126 3.7011718-1.0507813-0.8320313a3.0003 3.0003 0 0 0 -3.203125 -0.3320313l-2 1a3.0003 3.0003 0 0 0 -1.6582031 2.6835939v5.9999996a3.0003 3.0003 0 0 0 1.6582031 2.683594l2 1a3.0003 3.0003 0 0 0 3.203125 -0.332032l1.0507813-0.832031 4.0703126 3.701172a3.0003 3.0003 0 0 0 3.359375 0.462891l3-1.5a3.0003 3.0003 0 0 0 1.658203 -2.683594v-11a3.0003 3.0003 0 0 0 -1.658203 -2.6835937l-3-1.5a3.0003 3.0003 0 0 0 -1.451172 -0.3144531z" style="opacity:.2"/>
 <path d="m14.890625 1.0019532a3.0003 3.0003 0 0 0 -1.908203 0.7773437l-4.0703126 3.7011719-1.0507813-0.8320313a3.0003 3.0003 0 0 0 -3.203125 -0.3320313l-2 1a3.0003 3.0003 0 0 0 -1.6582031 2.6835939v5.9999999a3.0003 3.0003 0 0 0 1.6582031 2.683594l2 1a3.0003 3.0003 0 0 0 3.203125 -0.332032l1.0507813-0.832031 4.0703126 3.701172a3.0003 3.0003 0 0 0 3.359375 0.462891l3-1.5a3.0003 3.0003 0 0 0 1.658203 -2.683594v-11a3.0003 3.0003 0 0 0 -1.658203 -2.6835937l-3-1.5000001a3.0003 3.0003 0 0 0 -1.451172 -0.314453z" style="fill:#009d3d"/>
 <path d="M 15,4.5 9.0469,9.9121001 6,7.5 4,8.5000001 V 14.5 l 2,1 L 9.0469,13.088 15,18.5 18,17 V 6 Z m 0,3.8750001 V 14.625 L 11.053,11.5 Z M 6,10.318 7.3008,11.5 6,12.682 Z" style="fill-rule:evenodd;opacity:.2"/>
 <g transform="translate(-.99999999 -.99999995)" style="fill-rule:evenodd;fill:#ffffff">
  <path d="M 16,5 10.046875,10.412109 7,8 5,9 v 6 L 7,16 10.046875,13.587891 16,19 19,17.5 v -11 z m 0,3.875 v 6.25 L 12.052734,12 Z M 7,10.818359 8.3007812,12 7,13.181641 Z"/>
  <path d="M 16,5 10.046875,10.412109 7,8 5,9 v 6 L 7,16 10.046875,13.587891 16,19 19,17.5 v -11 z m 0,3.875 v 6.25 L 12.052734,12 Z M 7,10.818359 8.3007812,12 7,13.181641 Z" style="fill:none"/>
 </g>
 <path d="m14.890625 1.0019532a3.0003 3.0003 0 0 0 -1.908203 0.7773437l-4.0703126 3.7011719-1.0507813-0.8320313a3.0003 3.0003 0 0 0 -3.203125 -0.3320313l-2 1a3.0003 3.0003 0 0 0 -1.6582031 2.6835939v0.4785156a3.0003 3.0003 0 0 1 1.6582031 -2.6621095l2-1a3.0003 3.0003 0 0 1 3.203125 0.3320313l1.0507813 0.8320313 4.0703126-3.7011718a3.0003 3.0003 0 0 1 1.908203 -0.7773439 3.0003 3.0003 0 0 1 1.451172 0.3144531l3 1.5a3.0003 3.0003 0 0 1 1.658203 2.6835938v-0.5a3.0003 3.0003 0 0 0 -1.658203 -2.6835937l-3-1.5000001a3.0003 3.0003 0 0 0 -1.451172 -0.314453z" style="fill:#ffffff;opacity:.1"/>
</svg>

<svg xmlns="http://www.w3.org/2000/svg" width="22" height="22" version="1">
 <path style="opacity:0.2" d="M 14.890625,1.5015905 A 3.0003,3.0003 0 0 0 12.982422,2.2789343 L 8.9121094,5.9801061 7.8613281,5.1480748 A 3.0003,3.0003 0 0 0 4.6582031,4.8160435 l -2,1 A 3.0003,3.0003 0 0 0 1,8.4996374 v 5.9999996 a 3.0003,3.0003 0 0 0 1.6582031,2.683594 l 2,1 a 3.0003,3.0003 0 0 0 3.203125,-0.332032 l 1.0507813,-0.832031 4.0703126,3.701172 a 3.0003,3.0003 0 0 0 3.359375,0.462891 l 3,-1.5 A 3.0003,3.0003 0 0 0 21,16.999637 V 5.9996373 A 3.0003,3.0003 0 0 0 19.341797,3.3160436 l -3,-1.5 A 3.0003,3.0003 0 0 0 14.890625,1.5015905 Z"/>
 <path style="fill:#009d3d" d="M 14.890625,1.0019532 A 3.0003,3.0003 0 0 0 12.982422,1.7792969 L 8.9121094,5.4804688 7.8613281,4.6484375 A 3.0003,3.0003 0 0 0 4.6582031,4.3164062 l -2,1 A 3.0003,3.0003 0 0 0 1,8.0000001 V 14 a 3.0003,3.0003 0 0 0 1.6582031,2.683594 l 2,1 a 3.0003,3.0003 0 0 0 3.203125,-0.332032 l 1.0507813,-0.832031 4.0703126,3.701172 a 3.0003,3.0003 0 0 0 3.359375,0.462891 l 3,-1.5 A 3.0003,3.0003 0 0 0 21,16.5 V 5.5 A 3.0003,3.0003 0 0 0 19.341797,2.8164063 l -3,-1.5000001 a 3.0003,3.0003 0 0 0 -1.451172,-0.314453 z"/>
 <path style="opacity:0.2;fill-rule:evenodd" d="M 15,4.5 9.0469,9.9121001 6,7.5 4,8.5000001 V 14.5 l 2,1 L 9.0469,13.088 15,18.5 18,17 V 6 Z m 0,3.8750001 V 14.625 L 11.053,11.5 Z M 6,10.318 7.3008,11.5 6,12.682 Z"/>
 <g style="fill:#ffffff;fill-rule:evenodd" transform="translate(-0.99999999,-0.99999995)">
  <path d="M 16,5 10.046875,10.412109 7,8 5,9 v 6 L 7,16 10.046875,13.587891 16,19 19,17.5 v -11 z m 0,3.875 v 6.25 L 12.052734,12 Z M 7,10.818359 8.3007812,12 7,13.181641 Z"/>
  <path style="fill:none" d="M 16,5 10.046875,10.412109 7,8 5,9 v 6 L 7,16 10.046875,13.587891 16,19 19,17.5 v -11 z m 0,3.875 v 6.25 L 12.052734,12 Z M 7,10.818359 8.3007812,12 7,13.181641 Z"/>
 </g>
 <path style="opacity:0.1;fill:#ffffff" d="M 14.890625,1.0019532 A 3.0003,3.0003 0 0 0 12.982422,1.7792969 L 8.9121094,5.4804688 7.8613281,4.6484375 A 3.0003,3.0003 0 0 0 4.6582031,4.3164062 l -2,1 A 3.0003,3.0003 0 0 0 1,8.0000001 V 8.4785157 A 3.0003,3.0003 0 0 1 2.6582031,5.8164062 l 2,-1 a 3.0003,3.0003 0 0 1 3.203125,0.3320313 L 8.9121094,5.9804688 12.982422,2.279297 a 3.0003,3.0003 0 0 1 1.908203,-0.7773439 3.0003,3.0003 0 0 1 1.451172,0.3144531 l 3,1.5 A 3.0003,3.0003 0 0 1 21,6 V 5.5 A 3.0003,3.0003 0 0 0 19.341797,2.8164063 l -3,-1.5000001 a 3.0003,3.0003 0 0 0 -1.451172,-0.314453 z"/>
</svg>
